swiss/communes/5189.svg

<?xml version="1.0" encoding="UTF-8" standalone="no"?>
<svg
   xmlns:dc="http://purl.org/dc/elements/1.1/"
   xmlns:cc="http://creativecommons.org/ns#"
   xmlns:rdf="http://www.w3.org/1999/02/22-rdf-syntax-ns#"
   xmlns:svg="http://www.w3.org/2000/svg"
   xmlns="http://www.w3.org/2000/svg"
   xmlns:xlink="http://www.w3.org/1999/xlink"
   xmlns:sodipodi="http://sodipodi.sourceforge.net/DTD/sodipodi-0.dtd"
   xmlns:inkscape="http://www.inkscape.org/namespaces/inkscape"
   height="763"
   width="603"
   version="1.0"
   id="svg20"
   sodipodi:version="0.32"
   inkscape:version="0.46"
   sodipodi:docname="Lamone-coat_of_arms.svg"
   sodipodi:docbase="C:\Documents and Settings\Steve\Bureau\Blason Villages Suisse pour Wikipédia (par Delta-9)"
   inkscape:output_extension="org.inkscape.output.svg.inkscape">
  <metadata
     id="metadata31">
    <rdf:RDF>
      <cc:Work
         rdf:about="">
        <dc:format>image/svg+xml</dc:format>
        <dc:type
           rdf:resource="http://purl.org/dc/dcmitype/StillImage" />
        <dc:date>07-AUG-2006</dc:date>
        <dc:creator>
          <cc:Agent>
            <dc:title>Jérôme BLUM (wagner51)</dc:title>
          </cc:Agent>
        </dc:creator>
        <cc:license
           rdf:resource="http://creativecommons.org/licenses/GPL/2.0/" />
        <dc:coverage />
        <dc:description>Gabarit pour le Projet:Blasons de WIkipédia</dc:description>
        <dc:subject>
          <rdf:Bag>
            <rdf:li>blason suisse modèle gabarit projet blasons</rdf:li>
          </rdf:Bag>
        </dc:subject>
        <dc:language>fr</dc:language>
        <dc:title>Gabrit d'un blason suisse</dc:title>
      </cc:Work>
      <cc:License
         rdf:about="http://creativecommons.org/licenses/GPL/2.0/">
        <cc:permits
           rdf:resource="http://web.resource.org/cc/Reproduction" />
        <cc:permits
           rdf:resource="http://web.resource.org/cc/Distribution" />
        <cc:requires
           rdf:resource="http://web.resource.org/cc/Notice" />
        <cc:permits
           rdf:resource="http://web.resource.org/cc/DerivativeWorks" />
        <cc:requires
           rdf:resource="http://web.resource.org/cc/ShareAlike" />
        <cc:requires
           rdf:resource="http://web.resource.org/cc/SourceCode" />
      </cc:License>
    </rdf:RDF>
  </metadata>
  <defs
     id="defs29"><inkscape:perspective
   sodipodi:type="inkscape:persp3d"
   inkscape:vp_x="0 : 381.5 : 1"
   inkscape:vp_y="0 : 1000 : 0"
   inkscape:vp_z="603 : 381.5 : 1"
   inkscape:persp3d-origin="301.5 : 254.33333 : 1"
   id="perspective28" />
<linearGradient
   id="linearGradient2893">
  <stop
     style="stop-color:#ffffff;stop-opacity:0.3137255;"
     offset="0"
     id="stop2895" />
  <stop
     id="stop2897"
     offset="0.19"
     style="stop-color:#ffffff;stop-opacity:0.25098041;" />
  <stop
     style="stop-color:#6b6b6b;stop-opacity:0.1254902;"
     offset="0.60000002"
     id="stop2901" />
  <stop
     style="stop-color:#000000;stop-opacity:0.1254902;"
     offset="1"
     id="stop2899" />
</linearGradient>
<linearGradient
   id="linearGradient2955">
  <stop
     style="stop-color:white;stop-opacity:0;"
     offset="0"
     id="stop2965" />
  <stop
     style="stop-color:black;stop-opacity:0.64583331;"
     offset="1"
     id="stop2959" />
</linearGradient>
<radialGradient
   inkscape:collect="always"
   xlink:href="#linearGradient2893"
   id="radialGradient3236"
   gradientUnits="userSpaceOnUse"
   gradientTransform="matrix(1.215027,1.531577e-24,1.464684e-23,1.266667,-839.1924,-490.4894)"
   cx="858.04236"
   cy="579.93323"
   fx="858.04236"
   fy="579.93323"
   r="300" />
<inkscape:perspective
   id="perspective2495"
   inkscape:persp3d-origin="306 : 264 : 1"
   inkscape:vp_z="612 : 396 : 1"
   inkscape:vp_y="0 : 1000 : 0"
   inkscape:vp_x="0 : 396 : 1"
   sodipodi:type="inkscape:persp3d" />

	
	

	

		
		
		
		
		
		
	</defs>
  <sodipodi:namedview
     inkscape:window-height="758"
     inkscape:window-width="1064"
     inkscape:pageshadow="2"
     inkscape:pageopacity="0.0"
     guidetolerance="10.0"
     gridtolerance="10.0"
     objecttolerance="10.0"
     borderopacity="1.0"
     bordercolor="#666666"
     pagecolor="#ffffff"
     id="base"
     inkscape:zoom="0.43878517"
     inkscape:cx="297.03055"
     inkscape:cy="358.10225"
     inkscape:window-x="1344"
     inkscape:window-y="140"
     inkscape:current-layer="layer2"
     showgrid="false"
     showguides="true"
     inkscape:guide-bbox="true">
    <sodipodi:guide
       orientation="horizontal"
       position="761.5"
       id="guide1885" />
    <sodipodi:guide
       orientation="vertical"
       position="1.5"
       id="guide1887" />
    <sodipodi:guide
       orientation="horizontal"
       position="1.5"
       id="guide1889" />
    <sodipodi:guide
       orientation="vertical"
       position="601.5"
       id="guide1891" />
    <sodipodi:guide
       orientation="vertical"
       position="301.50081"
       id="guide1893" />
  </sodipodi:namedview>
  <desc
     id="desc22">Coat of Arms of Canton of Freiburg (Fribourg)</desc>
  <g
     inkscape:groupmode="layer"
     id="layer1"
     inkscape:label="Fond écu"
     style="opacity:1"
     sodipodi:insensitive="true">
    <path
       d="M 1.5,1.5 L 1.5,460.368 C 1.5,626.67899 135.814,761.5 301.5,761.5 C 467.186,761.5 601.5,626.67899 601.5,460.368 L 601.5,1.5 L 1.5,1.5 z"
       id="path2502"
       style="opacity:1;fill:#2b5df2" />
  </g>
  <g
     inkscape:groupmode="layer"
     id="layer2"
     inkscape:label="Meubles"
     style="opacity:1"
     sodipodi:insensitive="true">
    <path
       style="fill:#5ab532;stroke:#000000;stroke-width:2.75"
       d="M 301.5,761.5 C 342.646,761.5 381.854,753.178 417.556,738.13 L 381.643,671.99301 L 221.357,671.99301 L 185.444,738.13 C 221.145,753.178 260.353,761.5 301.5,761.5 z"
       id="path2476" />
    <rect
       style="fill:#ffffff;stroke:#000000;stroke-width:2.75"
       x="221.35701"
       y="613.23401"
       width="112.949"
       height="58.758999"
       id="rect2478" />
    <polygon
       style="fill:#e20909;stroke:#000000;stroke-width:2.75"
       points="215.855,613.234 236.098,580.845 334.306,580.845 334.306,613.234 215.855,613.234 "
       id="polygon2480" />
    <rect
       style="fill:#ffffff;stroke:#000000;stroke-width:2.75"
       x="334.306"
       y="553.23199"
       width="47.337002"
       height="118.761"
       id="rect2482" />
    <path
       d="M 352.991,568.59699 L 352.991,587.69799 L 362.958,587.69799 L 362.958,568.59699 L 352.991,568.59699 z M 352.991,640.68499 L 362.958,640.68499 L 362.958,621.58501 L 352.991,621.58501 L 352.991,640.68499 z"
       id="path2484" />
    <polygon
       style="fill:#e20909;stroke:#000000;stroke-width:2.75"
       points="334.306,553.232 357.87,508.903 381.643,553.232 334.306,553.232 "
       id="polygon2486" />
    <path
       id="path2488"
       d="M 576.135,1.5 L 301.5,276.135 L 26.866,1.5 L 1.5,1.5 L 1.5,123.08 L 228.027,349.607 L 18.151,559.48299 C 30.177,594.12599 48.324,625.88301 71.301,653.45501 L 301.588,423.168 L 531.778,653.35901 C 554.717,625.80999 572.836,594.08601 584.848,559.48299 L 375.062,349.696 L 601.5,123.25699 L 601.5,1.5 L 576.135,1.5 z"
       style="fill:#fcef3c;stroke:#000000;stroke-width:2.75" />
  </g>
  <g
     inkscape:groupmode="layer"
     id="layer3"
     inkscape:label="Reflet final"
     style="display:inline"
     sodipodi:insensitive="true">
    <path
       style="fill:url(#radialGradient3236);fill-opacity:1"
       d="M 1.5,1.5 L 1.5,460.3679 C 1.5,626.67854 135.81454,761.5 301.49993,761.5 C 467.1854,761.5 601.5,626.67854 601.5,460.3679 L 601.5,1.5 L 1.5,1.5 z "
       id="path2346" />
  </g>
  <g
     inkscape:groupmode="layer"
     id="layer4"
     inkscape:label="Contour final"
     style="display:inline"
     sodipodi:insensitive="true">
    <path
       style="fill:none;fill-opacity:1;stroke:#000000;stroke-width:3;stroke-miterlimit:4;stroke-dasharray:none;stroke-opacity:1"
       d="M 1.5,1.5 L 1.5,460.36794 C 1.5,626.67854 135.81454,761.5 301.49993,761.5 C 467.1854,761.5 601.5,626.67854 601.5,460.36794 L 601.5,1.5 L 1.5,1.5 z "
       id="path3239" />
  </g>
</svg>

<svg xmlns="http://www.w3.org/2000/svg" xmlns:xlink="http://www.w3.org/1999/xlink" height="763" width="603" version="1.0"><defs><radialGradient xlink:href="#a" id="b" gradientUnits="userSpaceOnUse" gradientTransform="matrix(1.21503 0 0 1.26667 -839.192 -490.49)" cx="858.042" cy="579.933" fx="858.042" fy="579.933" r="300"/><linearGradient id="a"><stop style="stop-color:#fff;stop-opacity:.3137255" offset="0"/><stop offset=".19" style="stop-color:#fff;stop-opacity:.25098041"/><stop style="stop-color:#6b6b6b;stop-opacity:.1254902" offset=".6"/><stop style="stop-color:#000;stop-opacity:.1254902" offset="1"/></linearGradient></defs><g style="opacity:1"><path d="M1.5 1.5v458.868c0 166.311 134.314 301.132 300 301.132s300-134.821 300-301.132V1.5H1.5z" style="opacity:1;fill:#2b5df2"/></g><g style="opacity:1"><path style="fill:#5ab532;stroke:#000;stroke-width:2.75" d="M301.5 761.5c41.146 0 80.354-8.322 116.056-23.37l-35.913-66.137H221.357l-35.913 66.137c35.701 15.048 74.909 23.37 116.056 23.37z"/><path style="fill:#fff;stroke:#000;stroke-width:2.75" d="M221.357 613.234h112.949v58.759H221.357z"/><path style="fill:#e20909;stroke:#000;stroke-width:2.75" d="m215.855 613.234 20.243-32.389h98.208v32.389H215.855z"/><path style="fill:#fff;stroke:#000;stroke-width:2.75" d="M334.306 553.232h47.337v118.761h-47.337z"/><path d="M352.991 568.597v19.101h9.967v-19.101h-9.967zm0 72.088h9.967v-19.1h-9.967v19.1z"/><path style="fill:#e20909;stroke:#000;stroke-width:2.75" d="m334.306 553.232 23.564-44.329 23.773 44.329h-47.337z"/><path d="M576.135 1.5 301.5 276.135 26.866 1.5H1.5v121.58l226.527 226.527L18.151 559.483c12.026 34.643 30.173 66.4 53.15 93.972l230.287-230.287 230.19 230.191c22.939-27.549 41.058-59.273 53.07-93.876L375.062 349.696 601.5 123.257V1.5h-25.365z" style="fill:#fcef3c;stroke:#000;stroke-width:2.75"/></g><g style="display:inline"><path style="fill:url(#b);fill-opacity:1" d="M1.5 1.5v458.868c0 166.31 134.315 301.132 300 301.132s300-134.821 300-301.132V1.5H1.5z"/></g><g style="display:inline"><path style="fill:none;fill-opacity:1;stroke:#000;stroke-width:3;stroke-miterlimit:4;stroke-dasharray:none;stroke-opacity:1" d="M1.5 1.5v458.868c0 166.31 134.315 301.132 300 301.132s300-134.821 300-301.132V1.5H1.5z"/></g></svg>
